build/img/logo/logo-xs.svg

<svg width="30" height="27" viewBox="0 0 30 27" fill="none" xmlns="http://www.w3.org/2000/svg">
  <path d="M16.75 1H13.8333L1 22.3415H4.79167L6.54167 19.2927L16.75 1Z" fill="#2C36F2"/>
  <path d="M2.75 26H27.25L16.75 7.09756L15 10.1463L20.25 19.2927L22 22.3415H4.79167H1L2.75 26Z" fill="#2C36F2"/>
  <path d="M22 22.3415L20.25 19.2927H9.75H6.54167L4.79167 22.3415H22Z" fill="#2C36F2"/>
  <path d="M27.25 26L29 22.3415L16.75 1L6.54167 19.2927H9.75L15 10.1463L16.75 7.09756L27.25 26Z" fill="#2C36F2"/>
  <path d="M15 10.1463L9.75 19.2927H20.25L15 10.1463Z" fill="#2C36F2"/>
  <path
    d="M27.25 26H2.75L1 22.3415M27.25 26L29 22.3415L16.75 1M27.25 26L16.75 7.09756L15 10.1463M16.75 1H13.8333L1 22.3415M16.75 1L6.54167 19.2927M1 22.3415H4.79167M15 10.1463L9.75 19.2927M15 10.1463L20.25 19.2927M9.75 19.2927H20.25M9.75 19.2927H6.54167M20.25 19.2927L22 22.3415H4.79167M6.54167 19.2927L4.79167 22.3415"
    stroke="#F6F7FF"/>
</svg>

<svg width="30" height="27" fill="none" xmlns="http://www.w3.org/2000/svg"><path d="M16.75 1h-2.917L1 22.341h3.792l1.75-3.048L16.75 1z" fill="#2C36F2"/><path d="M2.75 26h24.5L16.75 7.098 15 10.146l5.25 9.147L22 22.342H1L2.75 26z" fill="#2C36F2"/><path d="M22 22.341l-1.75-3.048H6.542l-1.75 3.049H22z" fill="#2C36F2"/><path d="M27.25 26L29 22.341 16.75 1 6.542 19.293H9.75L15 10.146l1.75-3.048L27.25 26z" fill="#2C36F2"/><path d="M15 10.146l-5.25 9.147h10.5L15 10.146z" fill="#2C36F2"/><path d="M27.25 26H2.75L1 22.341M27.25 26L29 22.341 16.75 1m10.5 25L16.75 7.098 15 10.146M16.75 1h-2.917L1 22.341M16.75 1L6.542 19.293M1 22.342h3.792M15 10.146l-5.25 9.147M15 10.146l5.25 9.147m-10.5 0h10.5m-10.5 0H6.542m13.708 0L22 22.342H4.792m1.75-3.05l-1.75 3.05" stroke="#F6F7FF"/></svg>
